src/assets/icons/weeks,simple,24.svg

<svg width="48" height="48" viewBox="0 0 48 48" fill="none" xmlns="http://www.w3.org/2000/svg">
<rect opacity="0.2" x="5" y="5" width="38" height="38" rx="4" fill="black"/>
<path d="M5 13C5 9.22876 5 7.34315 6.17157 6.17157C7.34315 5 9.22876 5 13 5H35C38.7712 5 40.6569 5 41.8284 6.17157C43 7.34315 43 9.22876 43 13V15H5V13Z" fill="black"/>
<path d="M9.91087 38H22.354V34.983H15.0245V34.8636L17.5728 32.3665C21.1609 29.0938 22.1239 27.4574 22.1239 25.4716C22.1239 22.446 19.6523 20.3068 15.9109 20.3068C12.2461 20.3068 9.73189 22.4972 9.74041 25.9233H13.2433C13.2347 24.2528 14.2915 23.2301 15.8853 23.2301C17.4194 23.2301 18.5614 24.1847 18.5614 25.7188C18.5614 27.108 17.7092 28.0625 16.1239 29.5881L9.91087 35.3409V38ZM24.3888 34.9318H32.7667V38H36.2951V34.9318H38.4599V31.9744H36.2951V20.5455H31.6758L24.3888 32.0256V34.9318ZM32.8349 31.9744H28.1048V31.8381L32.6985 24.5682H32.8349V31.9744Z" fill="black"/>
</svg>

<svg xmlns="http://www.w3.org/2000/svg" width="48" height="48" fill="none" viewBox="0 0 48 48">
  <rect width="38" height="38" x="5" y="5" fill="#000" opacity=".2" rx="4"/>
  <path fill="#000" d="M5 13c0-3.771 0-5.657 1.172-6.828C7.343 5 9.229 5 13 5h22c3.771 0 5.657 0 6.828 1.172C43 7.343 43 9.229 43 13v2H5v-2zM9.91 38h12.444v-3.017h-7.33v-.12l2.549-2.496c3.588-3.273 4.55-4.91 4.55-6.895 0-3.026-2.47-5.165-6.212-5.165-3.665 0-6.18 2.19-6.17 5.616h3.502c-.008-1.67 1.048-2.693 2.642-2.693 1.534 0 2.676.955 2.676 2.489 0 1.389-.852 2.343-2.437 3.87L9.91 35.34V38zm14.479-3.068h8.378V38h3.528v-3.068h2.165v-2.958h-2.165V20.546h-4.62l-7.286 11.48v2.906zm8.446-2.958h-4.73v-.136l4.594-7.27h.136v7.406z"/>
</svg>
